!!!ONB: MCCC : IGF0056_00 : Extracted Monophonic Melody
!!!COM: Fauré, Gabriel
!!!OTL: Nocturne No.5 in B-flat
!!!SCT: Op.37
!!!ODT: 1884///
**kern
*staff1
*clefG2
*k[b-e-]
*B-:
*M3/4
8b-
8cc
=2
8dd
8dd
4dd
8dd[
8dd]
=3
8ff
8ff
8dd
8dd
8cc
8b-
=4
8dd
8dd
8cc
8b-
8g
8e-
=5
4e[
8e]
8f
8g
8a
=6
4b-
4b-
8b-[
8b-]
=7
8a
16a
16a
16a
16a[
16a]
16a
16dd
16ff#
16ee
16dd
=8
16ff#
16fff#
16eee
16ddd
8ffff#
8eeee-
8dddd
8fff#
=9
8eee
8ddd
4ff#
4ee
=10
*M4/4
4dd
4r
4r
8b-
8cc
=11
*M3/4
8dd
8dd
4dd
8dd[
8dd]
=12
8ff
8ff
8dd
8dd
8cc
8b-
=13
8dd
8dd
8cc
8b-
8g
8e-
=14
4e[
8e]
8f
8g
8a
=15
4b-
4b-
8b-[
8b-]
=16
8a
16a
16a
16a
16a[
16a]
16a
16dd
16ff#
16ee
16dd
=17
16ff#
16fff#
16eee
16ddd
8ffff#
8eeee-
8dddd
8fff#
=18
8eee
8ddd
4ff#
4ee
=19
*M4/4
4dd
4r
4r
8dd
8ee-
=20
*M3/4
4ff[
8ff]
8gg
8aa-
8gg
=21
4ff
8ee-
8dd
8ff
8ee-
=22
4dd
8cc
8b
8dd
8cc
=23
8b-
8a-
8g
8f
8e-
8d
=24
8f[
8f]
4e-
8dd-
8ee-
=25
4ee[
8ee]
8ff#
8aa-
8ee
=26
4ee-
8dd-
8ee-
8ee
8dd-
=27
4b
8a#
8b
8dd-
8b-
=28
8a-
8g
8f#
8e
8e-
8d
=29
8d-[
8d-]
4B
8a-
8b-
=30
8b
8b
8cc
8cc
8ee-
8dd
=31
8b
8b
4b
8a-
8b-
=32
8b
8cc
8dd
8cc
8ee-
8dd
=33
8b
8b
4b
8cc[
8cc]
=34
8dd
8dd
8cc
8cc
8b-
8a
=35
8dd
8dd
4dd
8dd[
8dd]
=36
4ff[
8ff]
8ee
8dd
8dd-
=37
8bb-
8bb-
8aa-
8ff
8dd-
8a-
=38
4b-
4a-
4f
=39
2.f
=40
4b-
4a-
4f
=41
2.f
=42
4b-
4a-
4f
=43
4b-
4a-
4a
=44
4f
4f
4f
=45
4e-
8f
8f
16a
16ee-
16dd
16cc
=46
16ee-
16eee-
16ddd
16ccc
8eeee-
8dddd
8cccc
8eee-
=47
8ddd
8ccc
8ee-
8dd
8cc
8ff
=48
8ee-
8dd
8cc
8gg
8ee-
8dd
=49
8cc
8bb-
8aa
8gg
8ff
8ee-
=50
16a
8.ff
4cc
8ee-
8dd
=51
16cc
8.gg
4b-
4g
=52
16cc
8.aa
4r
8g
8f
=53
16ff
8.bb
4r
4r
=54
16dd-
8.bb-
4r
4r
=55
16g
16cc
8ee
4r
4r
=56
32r
32f
16ee-[
8ee-]
4r
4r
=57
16f
8.dd
8r
8d
12f
12b-
12dd
=58
4ddd
4ccc
8eee-
8ddd
=59
4ccc
4bb-
4gg
=60
8ff[
8ff]
8dd[
8dd]
8gg
8ff
=61
4ee-
4dd
4g
=62
4dd-
4cc
8ee-
8dd
=63
8cc
8ff#
8gg
8aa
8bb-
8bb
=64
8ccc
8ddd
8eee-
8fff
8ggg
8aaa
=65
8bb-
8fff
4bbb-
8B-
8c
=66
2.d
=67
2.g
=68
4dd
4dd
8dd[
8dd]
=69
2.bb-
=70
*M4/4
1r
=71
*M6/8
2.r
=72
24r
24E
24e
24e-
24d-
24e
24ee
24ee-
24dd-
24ee
24eee
24eee-
24ddd-
24aa-
24ee
24dd-
24a-
24e
=73
24r
24d-
24e
24a
24e
24d-
8A-
24r
24d-
24e
24g
24e-
24B
8F#
=74
24r
24A
24a
24g
24f
24a
24aa
24gg
24ff
24aa
24aaa
24ggg
24fff
24aa
24ff
24a
24f
24e-
=75
8d-
24ee-
24b-
24f
8d-
24r
24e-
24g
24cc
24g
24e-
8B-
=76
24r
24c
24cc
24b-
24a-
24cc
24ccc
24bb-
24aa-
24fff
24eee-
24ddd-
24aa-
24ff
24dd-
24a-
24f
24B
=77
2.r
=78
8r
16r
16d-
24dd-
24cc
24b-
24dd-
24ddd-
24ccc
24bb-
24ff
24dd-
24b-
24f
24d-
=79
8c
24r
24f
24b-
8c[
8c]
24r
24f
24g
8c
=80
24r
24f
24b-
24dd-
24ff
24bb-
24ddd-
24ggg
24fff
24eee
24ddd
24ddd-
24bb-
24gg
24ee
24dd-
24b-
24g
=81
8c
24r
24f
24b-
8c[
8c]
24r
24f
24g
8c
=82
24r
24e
24g
24b-
24dd-
24ee
24gg
24ggg
24fff
24eee
24ddd
24ddd-
24bb-
24gg
24ee
24dd-
24b-
24g
=83
8f
24r
24cc
24ee
8d
24r
24b-
24dd-
8e
24r
24dd-
24gg
=84
8f
24r
24cc
24ee
8d
24r
24b-
24dd-
8e
24r
24dd-
24bb-
=85
8a
24r
24ee
24gg
8f
24r
24dd
24ee
8b
24r
24ee
24ddd
=86
8ddd-
24r
24a-
24aa-
24r
24a
24aa
24r
24b-
24bb-
24r
24a
24aa
24r
24a-
24aa-
=87
24r
24a
24aa
24r
24a-
24aa-
24r
24a
24aa
24r
24b-
24bb-
24r
24a
24aa
24r
24a-
24aa-
=88
24r
24a
24aa
24r
24e
24a-
24r
24f
24a
24r
24f#
24b-
24r
24f
24a
24r
24e
24a-
=89
24r
24e-
24g
24r
24d
24f#
24r
24d-
24f
24r
24c
24e
24r
24B
24e-
8r
=90
2.r
=91
24r
24E
24e
24e-
24d-
24e
24ee
24ee-
24dd-
24ee
24eee
24eee-
24ddd-
24aa-
24ee
24dd-
24a-
24e
=92
24r
24d-
24e
24a
24e
24d-
8A-
24r
24d-
24e
24g
24e-
24B
8F#
=93
24r
24A
24a
24g
24f
24a
24aa
24gg
24ff
24aa
24aaa
24ggg
24fff
24aa
24ff
24a
24f
24e-
=94
8d-
24ee-
24b-
24f
8d-
24r
24e-
24g
24cc
24g
24e-
8B-
=95
24r
24c
24cc
24b-
24a-
24cc
24ccc
24bb-
24aa-
24fff
24eee-
24ddd-
24aa-
24ff
24dd-
24a-
24f
24B
=96
2.r
=97
8r
16r
16d-
24dd-
24cc
24b-
24dd-
24ddd-
24ccc
24bb-
24ff
24dd-
24b-
24f
24d-
=98
8ff
4ee-
4eee-
8fff
=99
8eee-
8ddd-
8ff
8ee-
8dd-
16.b-[
32b-]
=100
8aa-
4ff
4fff
8aaa-
=101
8fff#
8fff
8aa-
8ff#
8ff
8b-
=102
8ee
4dd-
4ddd-
8eee
=103
8eee-[
8eee-]
8ddd
8ddd-
8ccc
8bb-
=104
8aa[
8aa]
8aa-
8gg
8ff#
8ee-
=105
8dd-
24f
24e-
24d-
24d-
24a-
24dd-
24fff
24eee-
24ddd-
24aa-
24ff
24dd-
24a-
24f
24d-
=106
8c
24r
24f
24b-
8c[
8c]
24r
24f
24g
8c
=107
24r
24f
24b-
24dd-
24ff
24bb-
24ddd-
24ggg
24fff
24eee
24ddd
24ddd-
24bb-
24gg
24ee
24dd-
24b-
24g
=108
8c
24r
24f
24b-
8c[
8c]
24r
24f
24g
8c
=109
24r
24e
24g
24b-
24dd-
24ee
24gg
24ggg
24fff
24eee
24ddd
24ddd-
24bb-
24gg
24ee
24dd-
24b-
24g
=110
8f
24r
24cc
24ee
8d
24r
24b-
24dd-
8e
24r
24dd-
24gg
=111
8f
24r
24cc
24ee
8d
24r
24b-
24dd-
8e
24r
24dd-
24bb-
=112
8a
24r
24cc
24gg
8e
24r
24b
24ff
8b
24r
24aa-
24ddd
=113
8dd-
24r
24ff#
24bb
8a-
24r
24dd-
24aa
24r
24dd-
24ddd-
24r
24ff#
24fff#
=114
24r
24ff
24fff
24r
24dd
24ddd
24r
24ee-
24eee-
24r
24ff
24fff
24r
24ff#
24fff#
24r
24bb-
24bbb-
=115
24r
24ff
24fff
24r
24dd
24ddd
24r
24ee-
24eee-
24r
24ff
24fff
24r
24ff#
24fff#
24r
24bb-
24bbb-
=116
24r
24bb-
24bbb-
24r
24gg
24ggg
24r
24aa-
24aaa-
24r
24bb-
24bbb-
24r
24bb
24bbb
24r
24eee-
24eeee-
=117
24r
24bb-
24bbb-
24r
24gg
24ggg
24r
24aa-
24aaa-
24r
24bb-
24bbb-
24r
24bb
24bbb
24r
24eee-
24eeee-
=118
24r
24eee-
24eeee-
24r
24ccc
24cccc
24r
24ddd-
24dddd-
24r
24eee-
24eeee-
24r
24eee
24eeee
24r
24aaa-
24aaaa-
=119
24r
24ee-
24eee-
24r
24cc
24ccc
24r
24dd-
24ddd-
24r
24ee-
24eee-
24r
24ee
24eee
24r
24aa-
24aaa-
=120
4.a
24r
24ee-
24eee-
24r
24cc
24ccc
24r
24dd-
24ddd-
=121
4.b
24r
24ee-
24eee-
24r
24cc
24ccc
24r
24dd-
24ddd-
=122
4eee-
8ddd-
32ddd-
32ddd-
16ddd-
24eee
24fff#
24bbb-
8eeee
=123
4ddd-
24bb
24bb[
24bb]
24bb
24eee
24aaa-
24bbb
24eeee
24ffff#
8aaaa-
=124
4ff#
32ee-
32ee-
16ee-
32ee-
32ff#
16aa
24ddd-
24fff#
24aaa
8dddd-
=125
4ee
32ee-[
16.ee-]
32ee-
32ff#
32aa-
32ccc
24eee-
24fff#
24aaa-
8cccc
=126
4ddd
8ddd-
32ddd-
32ddd-
16ddd
24fff#
24bbb
24dddd
8ffff#
=127
4ddd-
16ccc
16ccc
32ccc
32ccc
16ddd-
24fff
24aaa-
24dddd-
8ffff
=128
4bb-
8aaa-[
8aaa-]
8fff#
8eee
=129
8eee-
8ddd-
8bb
8bb-
8aa-
8gg[
=130
4gg]
8ee
4.aa-
=131
2.r
=132
4ee
32ee[
16.ee]
32ee
32aa-
32ddd-
32eee
32aaa-
32dddd-
16eeee-
8eeee
=133
2.r
=134
2.r
=135
2.r
=136
2.r
=137
2.r
=138
2.r
=139
4.r
8r
8b-
8cc
=140
*M3/4
2dd
4r
=141
6ff[
12ff]
6dd[
12dd]
8cc
16b-[
16b-]
=142
6dd[
12dd]
8cc
16b-[
16b-]
8g
8e-
=143
6e
12e[
8e]
16f[
16f]
8g
16a[
16a]
=144
16b-
16b-
8b-
16b-
16b-
8b-
16b-
16b-[
8b-]
=145
8a
16a
16a
16a
16a[
16a]
16a
16dd
16ff#
16ee
16dd
=146
16ff#
16fff#
16eee
16ddd
8ffff#
8eeee
8dddd
8fff#
=147
8eee
8ddd
4ff#
4ee
=148
*M4/4
4dd
4r
4r
8b-
8cc
=149
*M3/4
8dd
8dd
8dd[
8dd]
6dd[
12dd]
=150
6ff[
12ff]
6dd[
12dd]
8cc
16b-[
16b-]
=151
6dd[
12dd]
8cc
16b-[
16b-]
8g
8e-
=152
6e
12e[
8e]
16f[
16f]
8g
16a[
16a]
=153
16b-
16b-
8b-
16b-
16b-
8b-
16b-
16b-[
8b-]
=154
8a
16a
16a
16a
16a[
16a]
16a
16dd
16ff#
16ee
16dd
=155
16ff#
16fff#
16eee
16ddd
8ffff#
8eeee
8dddd
8fff#
=156
8eee
8ddd
4ff#
4ee
=157
*M4/4
4dd
4r
4r
8dd
8ee-
=158
*M3/4
4r
8r
8gg
8aa-
8gg
=159
4ff
8ee-
8dd
8ff
8ee-
=160
4dd
8cc
8b
8dd
8cc
=161
8b-
8a-
8g
8f
8e-
8d
=162
8f[
8f]
4e-
8dd-
8ee-
=163
4ee[
8ee]
8ff#
8aa-
8ee
=164
4ee-
8dd-
8ee-
8ee
8dd-
=165
4b
8a#
8b
8dd-
8b-
=166
8a-
8g
8f#
8e
8e-
8d
=167
8d-[
8d-]
4B
8a-
16b-[
16b-]
=168
6b[
12b]
6cc[
12cc]
8ee-
16dd[
16dd]
=169
8b
8b
8b[
8b]
8a-
16b-[
16b-]
=170
8b
16cc[
16cc]
8dd
16cc[
16cc]
8ee-
16dd[
16dd]
=171
8b
8b
8b[
8b]
6cc[
12cc]
=172
6dd[
12dd]
6cc[
12cc]
8b-
16a[
16a]
=173
8dd
8dd
8dd[
8dd]
6dd[
12dd]
=174
6ff
12ff[
8ff]
16ee[
16ee]
8dd
8dd-
=175
6bb-[
12bb-]
8aa-
16gg[
16gg]
8dd-
16a-[
16a-]
=176
4b-
4a-
4f
=177
2.f
=178
4b-
4a-
4f
=179
2.f
=180
4b-
4a-
4f
=181
4b-
4a-
4a
=182
4f
4f
4f
=183
4e-
8f
8f
16a
16ee-
16dd
16cc
=184
16ee-
16eee-
16ddd
16ccc
8eeee-
8dddd
8cccc
8eee-
=185
8ddd
8ccc
8ee-
8dd
8cc
8ff
=186
8ee-
8dd
8cc
8gg
8ee-
8dd
=187
8cc
8bbb-
8aaa
8ggg
8fff
8eee-
=188
4ddd
4ccc
8eee-
8ddd
=189
4ccc
4bb-
4gg
=190
8ff[
8ff]
8dd[
8dd]
8gg
8ff
=191
4ee-
4dd
4g
=192
4dd-
4cc
8ee-
8dd
=193
8cc
8ff#
8gg
8aa
8bb-
8bb
=194
8ccc
8ddd
8eee-
8fff
8ggg
8aaa
=195
16bb-
8.fff
4r
4r
=196
8cc
8dd
8ee-
8ff
8gg
8aa
=197
8bb-
8ddd
12ccc
12ddd
12bb-
12aa
12gg
12dd
=198
8cc
8dd
8ee-
8ff
8gg
8aa-
=199
8aa
8bb-
8ccc
8aa
8bb-
8ccc
=200
12ddd
12aa
12ccc
12bb-
12ff
12dd
12a
12b-
12cc
=201
12dd
12a
12cc
12b-
12f
12d
12A
12B-
12c
=202
[2.d
=203
2.d_
=204
2.d]
=205
2.g
=206
12r
12f#
12A
12r
12g
12B-
12r
12a
12c
=207
2.bb-
=208
2.bb-[
=209
2.bb-]
=210
2.r
==
*-
